svgs/sharp-solid/hand-sparkles.svg

<svg xmlns="http://www.w3.org/2000/svg" viewBox="0 0 640 512"><!--! Font Awesome Pro 6.6.0 by @fontawesome - https://fontawesome.com License - https://fontawesome.com/license (Commercial License) Copyright 2024 Fonticons, Inc. --><path d="M352 32l0-32L288 0l0 32 0 224-32 0 0-192 0-32-64 0 0 32 0 272c0 1.5 0 3.1 .1 4.6l-43.6-41.5-29-27.6L64.3 329.4l29 27.6 95.5 91c43.1 41.1 100.4 64 160 64l19.2 0c44.4 0 84.9-16.4 115.9-43.5L448 453.1l0-42.2 63.6-27.3L544 308.1 544 128l0-32-64 0 0 32 0 128-32 0 0-192 0-32-64 0 0 32 0 192-32 0 0-224zM288 352l16-32 16 32 32 16-32 16-16 32-16-32-32-16 32-16zM56 120L0 144l56 24 24 56 24-56 56-24-56-24L80 64 56 120zM560 352l-24 56-56 24 56 24 24 56 24-56 56-24-56-24-24-56z"/></svg>

<svg xmlns="http://www.w3.org/2000/svg" viewBox="0 0 640 512"><!--! Font Awesome Pro 6.4.0 by @fontawesome - https://fontawesome.com License - https://fontawesome.com/license (Commercial License) Copyright 2023 Fonticons, Inc. --><path d="M352 32V0H288V32 256H256V64 32H192V64 336c0 1.5 0 3.1 .1 4.6l-43.6-41.5-29-27.6L64.3 329.4l29 27.6 95.5 91c43.1 41.1 100.4 64 160 64H368c44.4 0 84.9-16.4 115.9-43.5L448 453.1V410.9l63.6-27.3L544 308.1V128 96H480v32V256H448V64 32H384V64 256H352V32zM288 352l16-32 16 32 32 16-32 16-16 32-16-32-32-16 32-16zM56 120L0 144l56 24 24 56 24-56 56-24-56-24L80 64 56 120zM560 352l-24 56-56 24 56 24 24 56 24-56 56-24-56-24-24-56z"/></svg>
